X:1
T:Title
L:1/8
M:4/4
I:linebreak $
K:G
V:1 treble nm="Voice"
V:1
"G" GBdg e2 dB | GBdg e2 d2 |"D" eA PA2 EA PA2 |"G" (3Bcd ef gedB |"G" GBdg e2 dB | GBdg e2 dB | %6
"C" cBcd efge |"D" dBAB"G" G4 ::"G" dg Pg2 bg Pg2 | dgbg eg d2 |"D" eA PA2 eA PA2 | %11
"G" (3Bcd ef gedB |"G" dg Pg2 bg Pg2 | dgbg egdB |"C" cBcd efge |"D" dBAB"G" G4 :| %16
